X:40
T:Ba, Ba, Ba, Comidjiado
M:3/8
L:1/8
R:Bourre
N:La Bourre 4th edition 1929, page 50
Z:Steve Mansfield www.lesession.co.uk May 2012
K:G
!p! B2 B | c B A | B2 G | B2 B | c B A | d3 :|
G A B | A2 G/ F/ | E D2 | G A B | c B A | G3 |]

